src/images/icons/wallet.svg

<svg width="20" height="18" viewBox="0 0 20 18" fill="none" xmlns="http://www.w3.org/2000/svg">
<path d="M16 5V4.2C16 3.0799 16 2.51984 15.782 2.09202C15.5903 1.71569 15.2843 1.40973 14.908 1.21799C14.4802 1 13.9201 1 12.8 1H4.2C3.07989 1 2.51984 1 2.09202 1.21799C1.71569 1.40973 1.40973 1.71569 1.21799 2.09202C1 2.51984 1 3.0799 1 4.2V5M19 9H17C15.8954 9 15 9.89543 15 11C15 12.1046 15.8954 13 17 13H19M1 5V13.8C1 14.9201 1 15.4802 1.21799 15.908C1.40973 16.2843 1.71569 16.5903 2.09202 16.782C2.51984 17 3.07989 17 4.2 17H15.8C16.9201 17 17.4802 17 17.908 16.782C18.2843 16.5903 18.5903 16.2843 18.782 15.908C19 15.4802 19 14.9201 19 13.8V8.2C19 7.0799 19 6.51984 18.782 6.09202C18.5903 5.71569 18.2843 5.40973 17.908 5.21799C17.4802 5 16.9201 5 15.8 5H1Z" stroke="#5C70D6" stroke-width="2" stroke-linecap="round" stroke-linejoin="round"/>
</svg>

<svg xmlns="http://www.w3.org/2000/svg" width="20" height="18" fill="none"><path stroke="#5C70D6" stroke-linecap="round" stroke-linejoin="round" stroke-width="2" d="M16 5v-.8c0-1.12 0-1.68-.218-2.108a2 2 0 0 0-.874-.874C14.48 1 13.92 1 12.8 1H4.2c-1.12 0-1.68 0-2.108.218a2 2 0 0 0-.874.874C1 2.52 1 3.08 1 4.2V5m18 4h-2a2 2 0 1 0 0 4h2M1 5v8.8c0 1.12 0 1.68.218 2.108a2 2 0 0 0 .874.874C2.52 17 3.08 17 4.2 17h11.6c1.12 0 1.68 0 2.108-.218a2 2 0 0 0 .874-.874C19 15.48 19 14.92 19 13.8V8.2c0-1.12 0-1.68-.218-2.108a2 2 0 0 0-.874-.874C17.48 5 16.92 5 15.8 5z"/></svg>
